svgs/regular/desktop-arrow-down.svg

<svg xmlns="http://www.w3.org/2000/svg" viewBox="0 0 576 512"><!--! Font Awesome Pro 6.6.0 by @fontawesome - https://fontawesome.com License - https://fontawesome.com/license (Commercial License) Copyright 2024 Fonticons, Inc. --><path d="M64 0L224 0l0 48L64 48c-8.8 0-16 7.2-16 16l0 192 480 0 0-192c0-8.8-7.2-16-16-16L352 48l0-48L512 0c35.3 0 64 28.7 64 64l0 192 0 48 0 48c0 35.3-28.7 64-64 64l-147.7 0 8 48 51.7 0c13.3 0 24 10.7 24 24s-10.7 24-24 24l-72 0-128 0-72 0c-13.3 0-24-10.7-24-24s10.7-24 24-24l51.7 0 8-48L64 416c-35.3 0-64-28.7-64-64l0-48 0-48L0 64C0 28.7 28.7 0 64 0zM48 304l0 48c0 8.8 7.2 16 16 16l175.5 0c.3 0 .6 0 .8 0l95.2 0c.3 0 .6 0 .8 0L512 368c8.8 0 16-7.2 16-16l0-48L48 304zM252.3 464l71.3 0-8-48-55.3 0-8 48zM312 24l0 118.1 39-39c9.4-9.4 24.6-9.4 33.9 0s9.4 24.6 0 33.9l-80 80c-9.4 9.4-24.6 9.4-33.9 0l-80-80c-9.4-9.4-9.4-24.6 0-33.9s24.6-9.4 33.9 0l39 39L264 24c0-13.3 10.7-24 24-24s24 10.7 24 24z"/></svg>

<svg xmlns="http://www.w3.org/2000/svg" viewBox="0 0 576 512"><!--! Font Awesome Pro 6.4.0 by @fontawesome - https://fontawesome.com License - https://fontawesome.com/license (Commercial License) Copyright 2023 Fonticons, Inc. --><path d="M64 0H224V48H64c-8.8 0-16 7.2-16 16V256H528V64c0-8.8-7.2-16-16-16H352V0H512c35.3 0 64 28.7 64 64V256v48 48c0 35.3-28.7 64-64 64H364.3l8 48H424c13.3 0 24 10.7 24 24s-10.7 24-24 24H352 224 152c-13.3 0-24-10.7-24-24s10.7-24 24-24h51.7l8-48H64c-35.3 0-64-28.7-64-64V304 256 64C0 28.7 28.7 0 64 0zM48 304v48c0 8.8 7.2 16 16 16H239.5c.3 0 .6 0 .8 0h95.2c.3 0 .6 0 .8 0H512c8.8 0 16-7.2 16-16V304H48zM252.3 464h71.3l-8-48H260.3l-8 48zM312 24V142.1l39-39c9.4-9.4 24.6-9.4 33.9 0s9.4 24.6 0 33.9l-80 80c-9.4 9.4-24.6 9.4-33.9 0l-80-80c-9.4-9.4-9.4-24.6 0-33.9s24.6-9.4 33.9 0l39 39V24c0-13.3 10.7-24 24-24s24 10.7 24 24z"/></svg>
